icons/round/av/ic_hd_24px.svg

<svg xmlns="http://www.w3.org/2000/svg" height="24" viewBox="0 0 24 24" width="24"><path d="M19 3H5c-1.11 0-2 .9-2 2v14c0 1.1.89 2 2 2h14c1.1 0 2-.9 2-2V5c0-1.1-.9-2-2-2zm-8.75 12c-.41 0-.75-.34-.75-.75V13h-2v1.25c0 .41-.34.75-.75.75S6 14.66 6 14.25v-4.5c0-.41.34-.75.75-.75s.75.34.75.75v1.75h2V9.75c0-.41.34-.75.75-.75s.75.34.75.75v4.5c0 .41-.34.75-.75.75zm3.25-6H17c.55 0 1 .45 1 1v4c0 .55-.45 1-1 1h-3.5c-.28 0-.5-.22-.5-.5v-5c0-.28.22-.5.5-.5zm1 4.5h2v-3h-2v3z"/></svg>

<svg xmlns="http://www.w3.org/2000/svg" enable-background="new 0 0 24 24" height="24" viewBox="0 0 24 24" width="24"><g><rect fill="none" height="24" width="24"/></g><g><g><path d="M20,4H4C2.89,4,2,4.9,2,6v12c0,1.1,0.89,2,2,2h16c1.1,0,2-0.9,2-2V6C22,4.9,21.1,4,20,4z M10.25,15L10.25,15 c-0.41,0-0.75-0.34-0.75-0.75V13h-2v1.25C7.5,14.66,7.16,15,6.75,15l0,0C6.34,15,6,14.66,6,14.25v-4.5C6,9.34,6.34,9,6.75,9l0,0 C7.16,9,7.5,9.34,7.5,9.75v1.75h2V9.75C9.5,9.34,9.84,9,10.25,9l0,0C10.66,9,11,9.34,11,9.75v4.5C11,14.66,10.66,15,10.25,15z M13.5,9H17c0.55,0,1,0.45,1,1v4c0,0.55-0.45,1-1,1h-3.5c-0.28,0-0.5-0.22-0.5-0.5v-5C13,9.22,13.22,9,13.5,9z M14.5,13.5h2v-3h-2 V13.5z"/></g></g></svg>
